X: 1
T: Tatter Jack Walsh
R: jig
M: 6/8
L: 1/8
K: Dmix
|: fef ded | cAB c2 A | dcA GFG| Add efg |
fef ded | cAB c2 A | dcA GFG | Ad^c d3 :|
|: dfa afd | dfa agf | g2 a ged | ^cde gfg |
afd fed | cAB cde | dcA GFG| Ad^c d3 :|


Tune 1638	Setting 28483

